X:1
T:Die schöne Müllerin (D.795)
T:Mit dem grünen Lautenbande
T:13. Mit dem grünen Lautenbande
T:Franz Schubert
T:Die schöne Müllerin (D.795)
T:Friedrich Müller
T:OpenScore (CC0)
T:OpenScore (CC0)
C:Franz Schubert
Z:Wilhelm Müller
Z:OpenScore (CC0)
%%score 1 { ( 2 4 ) | ( 3 5 ) }
L:1/8
Q:1/4=58
M:2/4
K:Bb
V:1 treble nm="Singstimme"
V:2 treble nm="Pianoforte"
V:4 treble 
V:3 bass 
V:5 bass 
V:1
"^Mässig." !fermata!z2 z2 |: z4 | z2 z !fermata!z | d c/ A/ B F | e d c3/2 c/ | f e/d/ d c/A/ | %6
w: |||"Schad' um das schö- ne|grü- ne Band, dass|es ver- * bleicht hier *|
w: |||Ist auch dein gan- zer|Lieb- ster weiss, soll|Grün doch * ha- ben *|
w: |||Nun schlin- ge in die|Lo- cken dein das|grü- ne _ Band ge- *|
 B c !fermata!d d | c3/2 c/ d/c/ B/A/ | (B/d/ f2) f | fG/ G/ e{fe}d/ c/ | B2 z d | c F f3/2 A/ | %12
w: an der Wand, ich|hab' das Grün * so _|gern, _ _ ich|hab' * das Grün _ so|gern." So|sprachst du, Lieb- chen,|
w: sei- nen Preis, und|ich auch hab' * es _|gern, _ _ und|ich _ auch hab' _ es|gern. Weil|un- s're Lieb' ist|
w: fäl- lig ein, du|hast ja's Grün * so _|gern, _ _ du|hast * ja's Grün _ so|gern. Dann|weiss ich, wo die|
 B c d f | F/ G/ A/ B/ c3/2 =E/ | F2 z F | c3/2 c/ d/c/ B/A/ | (B/d/ f2)[Q:1/4=56] f | %17
w: heut' zu mir, gleich|knüpf' ich's ab und send' es|dir. Nun|hab' das Grü- * ne _|gern, * * nun|
w: im- mer grün, weil|grün der Hoff- nung Fer- nen|blüh'n, d'rum|ha- ben wir * es _|gern, * * d'rum|
w: Hoff- nung wohnt, dann|weiss ich, wo die Lie- be|thront, dann|hab' ich's Grün * erst *|gern, * * dann|
[Q:1/4=54] f[Q:1/4=52]G/[Q:1/4=51] G/[Q:1/4=50] e[Q:1/4=48]{fe}d/[Q:1/4=47] c/[Q:1/4=48]"^.5"[Q:1/4=48]"^.3"[Q:1/4=46]"^.5" |1,2 %18
w: hab' * das Grü- * ne|
w: ha- * ben wir _ es|
w: hab' * ich's Grün _ erst|
[Q:1/4=46] B z z2 :|3 B z !fermata!z2 |] %20
w: gern.||
w: gern.||
w: |gern.|
V:2
 !fermata![DFB]2 (3z/ F/G/ (3A/B/c/ |: df/>F/ Gd/>D/ | Fd/>c/ B !fermata!z | [Bd] z [Bd] z | %4
 [ce][Bd] [Ac]2 | [FBf] z [FBd] z | [GB][Gc]!fermata![^Fd] z | c>c d/c/B/A/ | B/>d/ f2 f | %9
 fG e3/4f/8e/8 d/>c/ | Bc/>d/ B z | [Fc] z z [FA] | [FB][Fc][Fd] z | [CF]2 F=E | [A,CF]2 z F | %15
 c'>c' d'/c'/b/a/ | b/d'/ f'2 f | fG e3/4f/8e/8 d/>c/ |1,2 Bc/>d/ (3B/ F/G/ (3A/B/c/ :|3 %19
 Bc/>d/ x z |] %20
V:3
 !fermata![B,,F,B,]2 z2 |: [B,D] z [G,B,D] z | [F,B,D](([F,E][B,D])) !fermata!z | [B,F] z [B,F] z | %4
 [A,F][B,F] [F,F]2 | [D,B,D] z [F,B,D] z | G,[E,G,]!fermata![D,A,] z | A,3 B,/C/ | %8
 [D,F,B,]3 [D,B,] | B,C- CD/>E/ | [B,D](([F,E][B,D])) z | [F,A,C] z z [F,A,] | [G,B,][A,C][B,D] z | %13
 A,,2 G,,C, | F,,/A,,/C,/=E,/ F,/A,/C/D/ |[K:treble] A3 B/c/ | [DFB]3[K:bass] [D,B,] | %17
 B,C- CD/>E/ |1,2 [B,D](((([F,E][B,D])))) z :|3 [B,D](([F,E]!fermata![B,D])) z |] %20
V:4
 x4 |: x4 | x [FA]F x | x4 | x4 | x4 | x4 | =F4 | F3 F | GG A7/4A/4 | BA B x | x4 | x4 | %13
 x2 [B,C]2 | x4 | f4 | f3 F | GG A7/4A/4 |1,2 BAB z :|3 BA!fermata!B x |] %20
V:5
 x4 |: x4 | x4 | x4 | x4 | x4 | x4 | [E,F,]4 | x4 | E,2 F,7/4F,/4 | x4 | x4 | x4 | x4 | x4 | %15
[K:treble] [_EF]4 | x3[K:bass] x | E,2 F,7/4F,/4 |1,2 x4 :|3 x4 |] %20

